X: 233
T: Başladı Meclisde Mutrıb
C: Ahmet Avni Konuk
O: Turkey
F: http://compmusic.upf.edu/node/140
N: hicaz-zirgule--kupe--duyek--basladi--ahmet_avni_konuk
N: makam= hicaz-zirgule
N: form= kupe
N: usul= duyek = 8/4
M: 8/4
L: 1/16
K: C _7/8B ^1/4f ^c ^g
Q: 1/4=57
%%MIDI tuningsystem comma53
z4 A8 A4 ^3/4c2B4A2 B3A G2A2  | G4 A2B2 A4 B4 ^3/4c4 B2c2 d2{e}dc d4  | 
w:  Baş la dı  *  *  mec  |  *  lis *  *  te  mut *  *  rıb   | 
z4 d8 d4 ^3/4c2d2 e2=f2 e2d2 c2B2  | \
w:  bir  Hi caz  *  *  *  Zir  | 
A4 A2G2 A4 B4 ^3/4c4 B2{e}dc c8  | 
w:  *  gü *  *  le den    | 
z4 d8 d4 ^3/4c2d2 e2f2 a2g2 f2e2  | \
w:  Çık tı  ehl_ *  *  *  i   | 
d4 g4 =f4 e2f2 e2d2 ^3/4c2B2 c2cB A4  | 
w:  *  mec *  li *  sin  *  *  *  de   | 
z4 A8 A4 ^3/4c2B4A2 B3A G2A2  | G4 A2B2 B2^3/4c2 B2A2 A3G ^F2G2 A6z2  | 
w:  â hı  her  *  *  pey  |  *  gû *  *  *  le *  den    | 
|


